X:10
T:Triumph. JGi.010
S:Joshua Gibbons MS,1823,Tealby,Lincs.
M:C|
L:1/8
Q:1/4=140
R:Country Dance
O:Tealby,Lincolnshire
Z:VMP/R.Greig, 2009
K:G
g2|cBAG cAGF|Ggfge2d2|dBAG cAGF|G2G2G2:|
|:z2|A2c2B2d2|A2c2B2d2|.A.A(Ac) .B.B(Bd)|dcAF G4:|
|:B3d dccB|A3B c2B2|GABc defg|dcBA G4:|

